X:1
T: Miss Leslie Campbell's Strathspey
C:
R:Strathspey
Q: 128
K:A
M:4/4
L:1/16
|:F2|E4 c3E F3D d3f|e3f a3c e6 f2|e3a c3a f3a e3c|Be3 g3f e4 d4|
c3d e3A f3d e3c|B3c d3e f6 g2|((3a2b2a2) ((3a2g2f2) eA3 d3f|ec3 B3e A6:|
|:G2|F3G A3B AE3 E3E|F3G A3B A6 A2|B3c d3e cA3 A3c|B3e ^df3 e6 d2|
c3d e3E F2A2 d2f2|e3a Aa3 b6 b2|((3a2g2f2) ((3e2c2A2) F3B d3f|ea3 b3e a6:|
